src/assets/svgs/book.svg

<svg width="24" height="18" viewBox="0 0 24 18" fill="none" xmlns="http://www.w3.org/2000/svg">
<path d="M10.8021 14.5235C10.8944 14.5236 10.9858 14.5419 11.0711 14.5774C11.1563 14.6128 11.2337 14.6647 11.2989 14.7301C11.3641 14.7955 11.4158 14.873 11.451 14.9584C11.4862 15.0437 11.5042 15.1352 11.5041 15.2275C11.504 15.3198 11.4857 15.4112 11.4502 15.4964C11.4148 15.5817 11.3629 15.6591 11.2975 15.7243C11.2321 15.7895 11.1545 15.8411 11.0692 15.8764C10.9839 15.9116 10.8924 15.9296 10.8001 15.9295C10.6137 15.9292 10.435 15.8549 10.3033 15.7229C10.1716 15.5908 10.0978 15.4119 10.0981 15.2255C10.0984 15.039 10.1727 14.8603 10.3047 14.7287C10.4367 14.597 10.6157 14.5232 10.8021 14.5235ZM21.8261 10.1765C21.7338 10.1764 21.6424 10.1582 21.5571 10.1228C21.4718 10.0874 21.3944 10.0356 21.3292 9.97023C21.2639 9.9049 21.2122 9.82736 21.1769 9.74205C21.1417 9.65673 21.1235 9.5653 21.1236 9.47298C21.1237 9.38066 21.1419 9.28926 21.1773 9.20399C21.2127 9.11873 21.2645 9.04127 21.3299 8.97603C21.3952 8.9108 21.4727 8.85907 21.558 8.8238C21.6434 8.78854 21.7348 8.77042 21.8271 8.77048C22.0135 8.77062 22.1923 8.84481 22.3241 8.97674C22.4558 9.10867 22.5297 9.28754 22.5296 9.47398C22.5295 9.66043 22.4553 9.83919 22.3233 9.97093C22.1914 10.1027 22.0126 10.1766 21.8261 10.1765ZM21.8261 7.30048C21.2497 7.30101 20.697 7.53023 20.2894 7.93782C19.8818 8.34541 19.6526 8.89806 19.6521 9.47448C19.6521 9.70748 19.6911 9.93948 19.7671 10.1655L12.5861 13.9885C12.387 13.6994 12.1206 13.463 11.8098 13.2998C11.499 13.1365 11.1532 13.0513 10.8021 13.0515C9.9731 13.0515 9.2181 13.5265 8.8521 14.2675L2.4011 10.8655C1.7191 10.5075 1.2091 9.38548 1.2631 8.36348C1.2911 7.83048 1.4751 7.41648 1.7561 7.25648C1.9341 7.15648 2.1481 7.16448 2.3761 7.28348L2.4181 7.30648C4.1281 8.20648 9.7221 11.1535 9.9581 11.2625C10.3211 11.4315 10.5231 11.4995 11.1431 11.2055L22.7071 5.19148C22.8771 5.12748 23.0751 4.96448 23.0751 4.71748C23.0751 4.37548 22.7211 4.24048 22.7201 4.24048C22.0621 3.92548 21.0511 3.45248 20.0651 2.99048C17.9571 2.00348 15.5681 0.885483 14.5191 0.335483C13.6131 -0.138517 12.8841 0.261483 12.7541 0.341483L12.5021 0.466483C7.7801 2.80148 1.4601 5.93148 1.1001 6.15048C0.457104 6.54248 0.0581037 7.32348 0.00610369 8.29248C-0.0738963 9.82948 0.709104 11.4325 1.8301 12.0195L8.6521 15.5375C8.72725 16.0543 8.98582 16.5267 9.38057 16.8686C9.77532 17.2105 10.2799 17.3989 10.8021 17.3995C11.3724 17.3985 11.9196 17.1738 12.326 16.7736C12.7323 16.3734 12.9654 15.8297 12.9751 15.2595L20.4891 11.1865C20.8691 11.4845 21.3421 11.6475 21.8261 11.6475C22.4025 11.647 22.9552 11.4177 23.3628 11.0101C23.7704 10.6026 23.9996 10.0499 24.0001 9.47348C23.9996 8.89707 23.7704 8.34441 23.3628 7.93682C22.9552 7.52923 22.4025 7.30001 21.8261 7.29948" fill="white"/>
</svg>

<svg width="24" height="18" fill="none" xmlns="http://www.w3.org/2000/svg"><path d="M10.802 14.524a.702.702 0 1 1-.001 1.404.702.702 0 0 1 .001-1.405zm11.024-4.347a.704.704 0 1 1 .001-1.408.704.704 0 0 1 0 1.408zm0-2.877a2.176 2.176 0 0 0-2.174 2.174c0 .233.04.465.115.691l-7.18 3.824a2.164 2.164 0 0 0-1.785-.938c-.829 0-1.584.476-1.95 1.216l-6.45-3.401c-.683-.358-1.193-1.48-1.139-2.503.028-.533.212-.947.493-1.107.178-.1.392-.092.62.027l.042.023c1.71.9 7.304 3.847 7.54 3.956.363.17.565.237 1.185-.056L22.707 5.19c.17-.064.368-.227.368-.474 0-.342-.354-.477-.355-.477-.658-.315-1.669-.788-2.655-1.25C17.957 2.003 15.568.885 14.52.335c-.906-.474-1.635-.074-1.765.006l-.252.125C7.78 2.801 1.46 5.931 1.1 6.15.457 6.542.058 7.323.006 8.292c-.08 1.537.703 3.14 1.824 3.728l6.822 3.518a2.175 2.175 0 0 0 2.15 1.861 2.177 2.177 0 0 0 2.173-2.14l7.514-4.072A2.171 2.171 0 0 0 24 9.473 2.176 2.176 0 0 0 21.826 7.3" fill="#fff"/></svg>
